archdroid-icon-theme/Archdroid-DeepOrangeDark/status/scalable/security-low.svg

<svg fill="#BF360C" height="48" viewBox="0 0 48 48" width="48" xmlns="http://www.w3.org/2000/svg"><g fill="#f44336"><path d="m24 2-18 8v12c0 11.11 7.67 21.47 18 24 10.33-2.53 18-12.89 18-24v-12zm0 4.380859 14 6.21875v11.38086.019531h-.003906c-1.06624 8.231958-6.55206 15.561443-13.996094 17.849609-7.444034-2.288166-12.929854-9.617652-13.996094-17.849609h-.003906v-.019531-11.38086z"/><g transform="translate(.005 -2.995)"><path d="m25.995 35.995h-4v-4h4z"/><path d="m25.995 27.995h-4v-10h4z"/></g></g></svg>

<svg fill="#BF360C" height="48" version="1.1" viewBox="0 0 48 48" width="48" xmlns="http://www.w3.org/2000/svg"><path d="M24 2L6 10 6 22C6 33.11 13.67 43.47 24 46 34.33 43.47 42 33.11 42 22l0-12zm0 4.380859l14 6.21875L38 23.980469 38 24 37.996094 24C36.929854 32.231958 31.444034 39.561443 24 41.849609 16.555966 39.561443 11.070146 32.231957 10.003906 24L10 24 10 23.980469 10 12.599609Z" fill="#f44336"/><g transform="translate(.005 -2.995)"><path d="m25.995 35.995l-4 0L21.995 31.995l4 0 0 4z" fill="#f44336"/><path d="m25.995 27.995l-4 0L21.995 17.995l4 0 0 10z" fill="#f44336"/></g></svg>
